public/assets/GDG-logo.svg

<svg width="276" height="64" viewBox="0 0 276 64" fill="none" xmlns="http://www.w3.org/2000/svg">
<g id="Group 45">
<g id="Group">
<g id="Group_2">
<path id="Vector" d="M28.9313 31.8956L48.6579 19.6202C53.3253 16.7655 54.9105 10.2947 52.1805 5.25133C49.5385 0.207958 43.5501 -1.50489 38.8827 1.44501L4.88959 22.6653L28.9313 31.8956Z" fill="#E84336"/>
</g>
<g id="Group_3">
<path id="Vector_2" d="M43.8143 63.584C47.1607 63.584 50.4191 61.6809 52.2685 58.3503C54.9105 53.3069 53.3253 46.9314 48.7459 43.9815L14.5767 22.6661C9.90925 19.8113 4.00889 21.5242 1.27887 26.4724C-1.36308 31.5158 0.222095 37.8913 4.80147 40.8412L38.8826 62.1566C40.4678 63.1082 42.141 63.584 43.8143 63.584Z" fill="#4282F2"/>
</g>
<g id="Group_4">
<path id="Vector_3" d="M77.7193 63.5833C79.3925 63.5833 81.0658 63.1075 82.5629 62.156L116.732 40.8406L92.9545 31.4199L72.8757 43.8856C68.2083 46.7404 66.6231 53.2111 69.3531 58.2545C71.1144 61.6802 74.3728 63.5833 77.7193 63.5833Z" fill="#F9BA08"/>
</g>
<g id="Group_5">
<path id="Vector_4" d="M111.888 42.2682C115.235 42.2682 118.493 40.365 120.343 37.0345C122.985 31.9911 121.4 25.6155 116.82 22.6656L82.6509 1.44536C77.9835 -1.40939 72.0831 0.303459 69.3531 5.25168C66.7111 10.2951 68.2963 16.6706 72.8757 19.6205L107.045 40.8408C108.542 41.7924 110.215 42.2682 111.888 42.2682Z" fill="#00A150"/>
</g>
</g>
<path id="GDG USAR" d="M143.75 29.936H151.27V41.136C150.118 41.5413 148.944 41.84 147.75 42.032C146.576 42.224 145.232 42.32 143.718 42.32C141.499 42.32 139.622 41.8507 138.086 40.912C136.571 39.952 135.419 38.5973 134.63 36.848C133.84 35.0773 133.446 32.9867 133.446 30.576C133.446 28.1867 133.883 26.1173 134.758 24.368C135.632 22.6187 136.902 21.264 138.566 20.304C140.23 19.3227 142.235 18.832 144.582 18.832C145.776 18.832 146.907 18.9493 147.974 19.184C149.062 19.4187 150.064 19.7493 150.982 20.176L149.926 22.672C149.179 22.3093 148.326 22 147.366 21.744C146.427 21.488 145.456 21.36 144.454 21.36C142.768 21.36 141.328 21.7333 140.134 22.48C138.939 23.2267 138.022 24.2933 137.382 25.68C136.742 27.0453 136.422 28.6773 136.422 30.576C136.422 32.3893 136.688 34 137.222 35.408C137.755 36.7947 138.598 37.8827 139.75 38.672C140.923 39.44 142.448 39.824 144.326 39.824C144.944 39.824 145.488 39.8027 145.958 39.76C146.448 39.696 146.896 39.6213 147.302 39.536C147.707 39.4507 148.08 39.3653 148.422 39.28V32.496H143.75V29.936ZM172.697 30.352C172.697 32.912 172.249 35.056 171.353 36.784C170.457 38.512 169.166 39.8133 167.481 40.688C165.817 41.5627 163.801 42 161.433 42H155.449V19.152H162.073C164.249 19.152 166.126 19.5787 167.705 20.432C169.305 21.2853 170.531 22.544 171.385 24.208C172.259 25.8507 172.697 27.8987 172.697 30.352ZM169.689 30.448C169.689 28.4213 169.379 26.7573 168.761 25.456C168.142 24.1547 167.235 23.1947 166.041 22.576C164.867 21.936 163.427 21.616 161.721 21.616H158.297V39.536H161.145C164.003 39.536 166.137 38.7787 167.545 37.264C168.974 35.728 169.689 33.456 169.689 30.448ZM185.673 29.936H193.193V41.136C192.041 41.5413 190.868 41.84 189.673 42.032C188.5 42.224 187.156 42.32 185.641 42.32C183.423 42.32 181.545 41.8507 180.009 40.912C178.495 39.952 177.343 38.5973 176.553 36.848C175.764 35.0773 175.369 32.9867 175.369 30.576C175.369 28.1867 175.807 26.1173 176.681 24.368C177.556 22.6187 178.825 21.264 180.489 20.304C182.153 19.3227 184.159 18.832 186.505 18.832C187.7 18.832 188.831 18.9493 189.897 19.184C190.985 19.4187 191.988 19.7493 192.905 20.176L191.849 22.672C191.103 22.3093 190.249 22 189.289 21.744C188.351 21.488 187.38 21.36 186.377 21.36C184.692 21.36 183.252 21.7333 182.057 22.48C180.863 23.2267 179.945 24.2933 179.305 25.68C178.665 27.0453 178.345 28.6773 178.345 30.576C178.345 32.3893 178.612 34 179.145 35.408C179.679 36.7947 180.521 37.8827 181.673 38.672C182.847 39.44 184.372 39.824 186.249 39.824C186.868 39.824 187.412 39.8027 187.881 39.76C188.372 39.696 188.82 39.6213 189.225 39.536C189.631 39.4507 190.004 39.3653 190.345 39.28V32.496H185.673V29.936ZM220.641 33.936C220.641 35.5147 220.332 36.944 219.713 38.224C219.116 39.4827 218.188 40.4853 216.929 41.232C215.692 41.9573 214.124 42.32 212.225 42.32C209.537 42.32 207.489 41.552 206.081 40.016C204.694 38.4587 204.001 36.4107 204.001 33.872V19.152H206.849V33.968C206.849 35.824 207.308 37.264 208.225 38.288C209.142 39.312 210.529 39.824 212.385 39.824C213.665 39.824 214.7 39.5787 215.489 39.088C216.278 38.576 216.854 37.8827 217.217 37.008C217.601 36.112 217.793 35.088 217.793 33.936V19.152H220.641V33.936ZM237.551 35.888C237.551 37.2533 237.231 38.416 236.591 39.376C235.973 40.3147 235.087 41.04 233.935 41.552C232.805 42.064 231.45 42.32 229.871 42.32C229.082 42.32 228.314 42.2773 227.567 42.192C226.842 42.1067 226.17 41.9893 225.551 41.84C224.954 41.6693 224.421 41.4667 223.951 41.232V38.48C224.698 38.8213 225.605 39.1307 226.671 39.408C227.759 39.6853 228.869 39.824 229.999 39.824C231.045 39.824 231.909 39.6747 232.591 39.376C233.295 39.0773 233.818 38.6507 234.159 38.096C234.522 37.5413 234.703 36.8907 234.703 36.144C234.703 35.3973 234.543 34.768 234.223 34.256C233.925 33.744 233.413 33.2747 232.687 32.848C231.962 32.4 230.97 31.9307 229.711 31.44C228.815 31.0773 228.026 30.6933 227.343 30.288C226.661 29.8613 226.085 29.3813 225.615 28.848C225.146 28.3147 224.794 27.7067 224.559 27.024C224.325 26.3413 224.207 25.552 224.207 24.656C224.207 23.44 224.495 22.4053 225.071 21.552C225.669 20.6773 226.479 20.0053 227.503 19.536C228.549 19.0667 229.754 18.832 231.119 18.832C232.293 18.832 233.37 18.9493 234.351 19.184C235.333 19.4187 236.239 19.728 237.071 20.112L236.175 22.576C235.407 22.2347 234.586 21.9467 233.711 21.712C232.858 21.4773 231.973 21.36 231.055 21.36C230.181 21.36 229.445 21.4987 228.847 21.776C228.271 22.0533 227.834 22.448 227.535 22.96C227.237 23.4507 227.087 24.0267 227.087 24.688C227.087 25.456 227.237 26.096 227.535 26.608C227.834 27.12 228.325 27.5787 229.007 27.984C229.69 28.3893 230.597 28.8267 231.727 29.296C232.986 29.7867 234.042 30.32 234.895 30.896C235.77 31.4507 236.431 32.1227 236.879 32.912C237.327 33.7013 237.551 34.6933 237.551 35.888ZM254.339 42L251.843 34.928H243.363L240.899 42H237.987L246.307 19.056H248.995L257.283 42H254.339ZM248.643 25.456C248.6 25.2853 248.504 24.976 248.355 24.528C248.227 24.08 248.088 23.6213 247.939 23.152C247.811 22.6613 247.704 22.288 247.619 22.032C247.512 22.4587 247.395 22.896 247.267 23.344C247.16 23.7707 247.053 24.1653 246.947 24.528C246.84 24.8907 246.744 25.2 246.659 25.456L244.291 32.368H251.011L248.643 25.456ZM265.203 19.152C266.995 19.152 268.467 19.3973 269.619 19.888C270.792 20.3573 271.656 21.072 272.211 22.032C272.787 22.992 273.075 24.1973 273.075 25.648C273.075 26.864 272.862 27.8773 272.435 28.688C272.03 29.4987 271.496 30.1493 270.835 30.64C270.195 31.1093 269.512 31.4827 268.787 31.76L274.739 42H271.411L266.227 32.56H262.099V42H259.251V19.152H265.203ZM265.043 21.648H262.099V30.128H265.171C266.323 30.128 267.262 29.968 267.987 29.648C268.734 29.3067 269.278 28.816 269.619 28.176C269.96 27.536 270.131 26.736 270.131 25.776C270.131 24.7733 269.95 23.9733 269.587 23.376C269.224 22.7787 268.659 22.3413 267.891 22.064C267.144 21.7867 266.195 21.648 265.043 21.648Z" fill="white"/>
</g>
</svg>

<svg xmlns="http://www.w3.org/2000/svg" width="276" height="64" fill="none" xmlns:v="https://vecta.io/nano"><path d="M28.931 31.896L48.658 19.62c4.667-2.855 6.253-9.325 3.523-14.369-2.642-5.043-8.63-6.756-13.298-3.806L4.89 22.665l24.042 9.23z" fill="#e84336"/><path d="M43.814 63.584c3.346 0 6.605-1.903 8.454-5.234 2.642-5.043 1.057-11.419-3.523-14.369L14.577 22.666c-4.667-2.855-10.568-1.142-13.298 3.806-2.642 5.043-1.057 11.419 3.523 14.369l34.081 21.315c1.585.952 3.258 1.427 4.932 1.427z" fill="#4282f2"/><path d="M77.719 63.583c1.673 0 3.346-.476 4.844-1.427l34.169-21.315-23.778-9.421-20.079 12.466c-4.667 2.855-6.253 9.326-3.523 14.369 1.761 3.426 5.02 5.329 8.366 5.329z" fill="#f9ba08"/><path d="M111.888 42.268c3.347 0 6.605-1.903 8.455-5.234 2.642-5.043 1.057-11.419-3.523-14.369L82.651 1.445C77.984-1.409 72.083.303 69.353 5.252c-2.642 5.043-1.057 11.419 3.523 14.369l34.169 21.22c1.497.952 3.17 1.427 4.843 1.427z" fill="#00a150"/><path d="M143.75 29.936h7.52v11.2a20.3 20.3 0 0 1-3.52.896c-1.174.192-2.518.288-4.032.288-2.219 0-4.096-.469-5.632-1.408-1.515-.96-2.667-2.315-3.456-4.064-.79-1.771-1.184-3.861-1.184-6.272 0-2.389.437-4.459 1.312-6.208a9.47 9.47 0 0 1 3.808-4.064c1.664-.981 3.669-1.472 6.016-1.472 1.194 0 2.325.117 3.392.352a14.23 14.23 0 0 1 3.008.992l-1.056 2.496c-.747-.363-1.6-.672-2.56-.928-.939-.256-1.91-.384-2.912-.384-1.686 0-3.126.373-4.32 1.12s-2.112 1.813-2.752 3.2c-.64 1.365-.96 2.997-.96 4.896 0 1.813.266 3.424.8 4.832.533 1.387 1.376 2.475 2.528 3.264 1.173.768 2.698 1.152 4.576 1.152l1.632-.064 1.344-.224 1.12-.256v-6.784h-4.672v-2.56zm28.947.416c0 2.56-.448 4.704-1.344 6.432s-2.187 3.029-3.872 3.904c-1.664.875-3.68 1.312-6.048 1.312h-5.984V19.152h6.624c2.176 0 4.053.427 5.632 1.28 1.6.853 2.826 2.112 3.68 3.776.874 1.643 1.312 3.691 1.312 6.144zm-3.008.096c0-2.027-.31-3.691-.928-4.992s-1.526-2.261-2.72-2.88c-1.174-.64-2.614-.96-4.32-.96h-3.424v17.92h2.848c2.858 0 4.992-.757 6.4-2.272 1.429-1.536 2.144-3.808 2.144-6.816zm15.984-.512h7.52v11.2c-1.152.405-2.325.704-3.52.896-1.173.192-2.517.288-4.032.288-2.218 0-4.096-.469-5.632-1.408-1.514-.96-2.666-2.315-3.456-4.064-.789-1.771-1.184-3.861-1.184-6.272 0-2.389.438-4.459 1.312-6.208s2.144-3.104 3.808-4.064c1.664-.981 3.67-1.472 6.016-1.472 1.195 0 2.326.117 3.392.352 1.088.235 2.091.565 3.008.992l-1.056 2.496a14.27 14.27 0 0 0-2.56-.928c-.938-.256-1.909-.384-2.912-.384-1.685 0-3.125.373-4.32 1.12s-2.112 1.813-2.752 3.2c-.64 1.365-.96 2.997-.96 4.896 0 1.813.267 3.424.8 4.832.534 1.387 1.376 2.475 2.528 3.264 1.174.768 2.699 1.152 4.576 1.152l1.632-.064 1.344-.224 1.12-.256v-6.784h-4.672v-2.56zm34.968 4c0 1.579-.309 3.008-.928 4.288-.597 1.259-1.525 2.261-2.784 3.008-1.237.725-2.805 1.088-4.704 1.088-2.688 0-4.736-.768-6.144-2.304-1.387-1.557-2.08-3.605-2.08-6.144v-14.72h2.848v14.816c0 1.856.459 3.296 1.376 4.32s2.304 1.536 4.16 1.536c1.28 0 2.315-.245 3.104-.736a4.46 4.46 0 0 0 1.728-2.08c.384-.896.576-1.92.576-3.072V19.152h2.848v14.784zm16.91 1.952c0 1.365-.32 2.528-.96 3.488-.618.939-1.504 1.664-2.656 2.176-1.13.512-2.485.768-4.064.768a20.3 20.3 0 0 1-2.304-.128 17.17 17.17 0 0 1-2.016-.352 9.31 9.31 0 0 1-1.6-.608V38.48c.747.341 1.654.651 2.72.928 1.088.277 2.198.416 3.328.416 1.046 0 1.91-.149 2.592-.448.704-.299 1.227-.725 1.568-1.28.363-.555.544-1.205.544-1.952s-.16-1.376-.48-1.888c-.298-.512-.81-.981-1.536-1.408-.725-.448-1.717-.917-2.976-1.408-.896-.363-1.685-.747-2.368-1.152-.682-.427-1.258-.907-1.728-1.44a5.39 5.39 0 0 1-1.056-1.824c-.234-.683-.352-1.472-.352-2.368 0-1.216.288-2.251.864-3.104.598-.875 1.408-1.547 2.432-2.016 1.046-.469 2.251-.704 3.616-.704 1.174 0 2.251.117 3.232.352s1.888.544 2.72.928l-.896 2.464a16.73 16.73 0 0 0-2.464-.864c-.853-.235-1.738-.352-2.656-.352-.874 0-1.61.139-2.208.416-.576.277-1.013.672-1.312 1.184-.298.491-.448 1.067-.448 1.728 0 .768.15 1.408.448 1.92s.79.971 1.472 1.376 1.59.843 2.72 1.312c1.259.491 2.315 1.024 3.168 1.6.875.555 1.536 1.227 1.984 2.016s.672 1.781.672 2.976zM254.339 42l-2.496-7.072h-8.48L240.899 42h-2.912l8.32-22.944h2.688L257.283 42h-2.944zm-5.696-16.544c-.043-.171-.139-.48-.288-.928l-.416-1.376-.32-1.12-.352 1.312-.32 1.184-.288.928-2.368 6.912h6.72l-2.368-6.912zm16.56-6.304c1.792 0 3.264.245 4.416.736 1.173.469 2.037 1.184 2.592 2.144.576.96.864 2.165.864 3.616 0 1.216-.213 2.229-.64 3.04-.405.811-.939 1.461-1.6 1.952a8.72 8.72 0 0 1-2.048 1.12L274.739 42h-3.328l-5.184-9.44h-4.128V42h-2.848V19.152h5.952zm-.16 2.496h-2.944v8.48h3.072c1.152 0 2.091-.16 2.816-.48.747-.341 1.291-.832 1.632-1.472s.512-1.44.512-2.4c0-1.003-.181-1.803-.544-2.4s-.928-1.035-1.696-1.312c-.747-.277-1.696-.416-2.848-.416z" fill="#fff"/></svg>
